X: 21
T:Haleâ€™s Rag
R:Reel
M:4/4
L:1/8
N:From Greg Canote
K:C
|z4z2ef|:geag egeg|agag eg-g2|cAdc AcAc|dcdc Ac-c2|
G2BG AB-B2|G2BG AB-B2|cBcB cdef|g3gg2ef|geagegeg|
agageg-g2|cAdc AcAc|dcdc Ac-c2|G2BG AB-B2|G2BG
AB-B2|
cBcB ge3|[1c3cc2ef:|[2c3cc2AB|]|:cAdc AcAc|dcdc
Ac-c2|
C2EC DCA,C|ECDC
A,C3|G,A,B,2B,3A,|G,A,B,2B,2(3G,A,B,|[1C2C2DE3|G3GG2AB:|
[2G(3DEF G2AB|c3cc4|]câ€™2b2agcd|eg2e agcd|e2e3cd2|
c3cc4|câ€™2b2agcd|eg2e
agag|b2bb-bab2|dâ€™8|câ€™2b2agcd|
eg2e agcd|e2e3cd2|c4c2B2|A,G,A,B,
CB,CD|EC2A,3cd|ee2e2cd2|c8|]

